brandFactory_export/2.Regular/Mail correo virus_2Regular.svg

<?xml version="1.0" encoding="UTF-8"?>
<svg width="24px" height="24px" viewBox="0 0 24 24" version="1.1" xmlns="http://www.w3.org/2000/svg" xmlns:xlink="http://www.w3.org/1999/xlink">
    <title>2.Regular/Mail correo virus_2Regular</title>
    <g id="Symbols" stroke="none" stroke-width="1" fill="none" fill-rule="evenodd">
        <g id="2.Regular/Mail-correo-virus_2Regular" fill="#5CB615" fill-rule="nonzero">
            <path d="M8.99831933,18.4369748 C10.8470588,18.4369748 11.3546218,17.7680672 11.3546218,15.3210084 C11.3546218,13.7915966 11.1294118,12.9714286 10.605042,12.5815126 C10.2621849,12.3294118 9.73781513,12.205042 8.99831933,12.205042 C8.25210084,12.205042 7.72436975,12.3294118 7.38151261,12.5882353 C6.8605042,12.9815126 6.63865546,13.7983193 6.63865546,15.3210084 C6.63865546,17.7680672 7.14621849,18.4369748 8.99831933,18.4369748 L8.99831933,18.4369748 Z M9.00168067,10.3596639 C7.41176471,10.3596639 7.41176471,10.702521 7.41176471,11.1327731 C7.41176471,11.1563025 7.41512605,11.1697479 7.41512605,11.189916 C7.86218487,11.0352941 8.37983193,10.9512605 8.99831933,10.9512605 C9.62016807,10.9512605 10.1411765,11.0352941 10.5882353,11.1932773 C10.5882353,11.1697479 10.5915966,11.1563025 10.5915966,11.1327731 C10.5915966,10.702521 10.5915966,10.3596639 9.00168067,10.3596639 L9.00168067,10.3596639 Z M13.394958,14.2453782 C13.7445378,14.2453782 14.0235294,14.5243697 14.0235294,14.8739496 L14.0235294,15.8016807 C14.0235294,16.1478992 13.7411765,16.4268908 13.394958,16.4268908 C13.0453782,16.4268908 12.7663866,16.1478992 12.7663866,15.8016807 L12.7663866,15.4991597 L12.6117647,15.4991597 C12.605042,16.1815126 12.5512605,16.8403361 12.389916,17.4285714 L13.2739496,17.6941176 C13.5529412,17.7781513 13.7378151,18.0369748 13.7210084,18.3260504 L13.6470588,19.7243697 C13.6302521,20.0571429 13.3512605,20.3159664 13.0184874,20.3159664 L12.9848739,20.3159664 C12.6386555,20.2957983 12.3731092,20.0033613 12.389916,19.6571429 L12.4403361,18.7495798 L11.8487395,18.5714286 C11.3210084,19.2537815 10.4436975,19.6907563 9.00168067,19.6907563 C7.55630252,19.6907563 6.6789916,19.2537815 6.1512605,18.5647059 L5.53613445,18.7495798 L5.58655462,19.6571429 C5.60336134,20.0033613 5.33781513,20.2991597 4.99159664,20.3159664 L4.95798319,20.3159664 C4.62521008,20.3159664 4.34621849,20.0571429 4.32941176,19.7243697 L4.25546218,18.3260504 C4.23865546,18.0369748 4.42352941,17.7747899 4.70252101,17.6941176 L5.61008403,17.4218487 C5.4487395,16.8336134 5.39831933,16.1781513 5.39159664,15.4991597 L5.23697479,15.4991597 L5.23697479,15.8016807 C5.23697479,16.1478992 4.95462185,16.4268908 4.60840336,16.4268908 C4.25882353,16.4268908 3.97983193,16.1478992 3.97983193,15.8016807 L3.97983193,14.8739496 C3.97983193,14.5277311 4.26218487,14.2453782 4.60840336,14.2453782 L5.43193277,14.2453782 C5.48235294,13.6941176 5.59327731,13.1596639 5.79831933,12.6789916 L4.70588235,12.3529412 C4.42689076,12.2689076 4.24201681,12.0067227 4.25882353,11.7176471 L4.33277311,10.3193277 C4.34957983,9.97310924 4.64537815,9.74789916 4.99495798,9.72773109 C5.34453782,9.74453782 5.61008403,10.0403361 5.58991597,10.3865546 L5.5394958,11.2941176 L6.18823529,11.4890756 C6.17142857,11.3747899 6.15798319,11.2571429 6.15798319,11.1327731 C6.15798319,9.10588235 8.15798319,9.10588235 9.00840336,9.10588235 C9.86218487,9.10588235 11.8588235,9.10588235 11.8588235,11.1327731 C11.8588235,11.2537815 11.8453782,11.3680672 11.8319328,11.4789916 L12.4436975,11.297479 L12.3932773,10.389916 C12.3764706,10.0436975 12.6420168,9.74789916 12.9882353,9.73109244 C13.3478992,9.7512605 13.6336134,9.97647059 13.6504202,10.3226891 L13.7243697,11.7210084 C13.7411765,12.010084 13.5563025,12.2722689 13.2773109,12.3563025 L12.205042,12.6756303 C12.4134454,13.1529412 12.5243697,13.6941176 12.5747899,14.2487395 L13.394958,14.2487395 L13.394958,14.2453782 Z M8.95798319,13.210084 C9.30756303,13.210084 9.58655462,13.4890756 9.58655462,13.8352941 L9.58655462,17.3109244 C9.58655462,17.6571429 9.30420168,17.9361345 8.95798319,17.9361345 C8.61176471,17.9361345 8.32941176,17.6571429 8.32941176,17.3109244 L8.32941176,13.8352941 C8.32941176,13.4890756 8.61176471,13.210084 8.95798319,13.210084 L8.95798319,13.210084 Z M22.0302521,19.2739496 C22.2084034,19.0655462 22.1647059,18.712605 22.1647059,18.7092437 L22.1546218,18.594958 L22.1613445,9.30084034 L17.697479,12.0806723 C17.7848739,12.4571429 17.8621849,12.8436975 17.9092437,13.2571429 C17.9630252,13.7243697 17.989916,14.2218487 17.989916,14.7260504 C17.989916,16.5915966 17.6,18.1848739 16.8773109,19.512605 C18.887395,19.512605 20.9176471,19.5092437 21.297479,19.502521 C21.5428571,19.5058824 21.8722689,19.4588235 22.0302521,19.2739496 L22.0302521,19.2739496 Z M9.36134454,22.2084034 C10.3159664,22.1915966 13.5630252,21.9361345 15.3243697,19.3411765 C16.1310924,18.1546218 16.5411765,16.605042 16.5411765,14.7327731 C16.5411765,14.2789916 16.5176471,13.8420168 16.4705882,13.4285714 C15.8218487,7.81176471 10.8403361,7.25714286 9.32773109,7.21680672 C9.14957983,7.21344538 8.94453782,7.21008403 8.74957983,7.21008403 L8.57142857,7.21008403 C7.04537815,7.22352941 2.02689076,7.7210084 1.50252101,13.6168067 C1.47226891,13.9563025 1.45546218,14.312605 1.45546218,14.6823529 C1.45546218,21.5697479 6.94789916,22.1848739 8.63193277,22.2084034 C8.87731092,22.2151261 9.14285714,22.2117647 9.36134454,22.2084034 Z M11.6806723,1.77142857 L3.49243697,6.94453782 C3.39831933,7.01176471 3.32773109,7.16638655 3.28403361,7.37815126 C4.83697479,6.26890756 6.74621849,5.78487395 8.55462185,5.76806723 C8.81680672,5.76470588 9.11260504,5.76806723 9.36134454,5.77478992 C12.4134454,5.8487395 15.7815126,7.21680672 17.2436975,10.6655462 L22.1546218,7.60336134 C22.1277311,7.27731092 22.0369748,7.03193277 21.8823529,6.9210084 L21.7882353,6.8605042 L13.7512605,1.78823529 C13.7176471,1.76470588 13.287395,1.47563025 12.712605,1.47563025 C12.1176471,1.4789916 11.687395,1.76806723 11.6806723,1.77142857 L11.6806723,1.77142857 Z M23.610084,18.5512605 C23.6403361,18.8 23.6739496,19.5663866 23.1563025,20.1882353 C22.8739496,20.5277311 22.3294118,20.9344538 21.3243697,20.9512605 C20.8773109,20.9579832 18.1714286,20.9613445 15.8722689,20.9613445 C13.6672269,23.3647059 10.410084,23.6302521 9.38823529,23.6470588 C9.23361345,23.6504202 9.05210084,23.6537815 8.87058824,23.6537815 C8.78319328,23.6537815 8.69579832,23.6537815 8.60840336,23.6504202 C7.1697479,23.6268908 0,23.0991597 0,14.6789916 C0,14.2621849 0.0168067227,13.8655462 0.0504201681,13.4857143 C0.225210084,11.4991597 0.870588235,9.96638655 1.78487395,8.8 L1.78487395,7.73109244 C1.81176471,6.59159664 2.28235294,6.02352941 2.67226891,5.74117647 L2.82689076,5.64033613 L10.8705882,0.561344538 C10.9176471,0.527731092 11.6537815,0.0235294118 12.6890756,0.0235294118 C13.7411765,0.0235294118 14.4773109,0.527731092 14.5579832,0.58487395 L22.692437,5.7210084 C23.1159664,6.02016807 23.5865546,6.59159664 23.6134454,7.71428571 L23.610084,18.5512605 L23.610084,18.5512605 Z" id="Mail-correo-virus_2Regular"></path>
        </g>
    </g>
</svg>

<svg width="24" height="24" viewBox="0 0 24 24" xmlns="http://www.w3.org/2000/svg"><path d="M8.998 18.437c1.85 0 2.357-.669 2.357-3.116 0-1.53-.226-2.35-.75-2.74-.343-.252-.867-.376-1.607-.376-.746 0-1.274.124-1.616.383-.521.394-.743 1.21-.743 2.733 0 2.447.507 3.116 2.36 3.116zm.004-8.077c-1.59 0-1.59.343-1.59.773 0 .023.003.037.003.057.447-.155.965-.239 1.583-.239.622 0 1.143.084 1.59.242 0-.023.004-.037.004-.06 0-.43 0-.773-1.59-.773zm4.393 3.885c.35 0 .629.28.629.629v.928a.627.627 0 01-.629.625.625.625 0 01-.629-.625v-.303h-.154c-.007.683-.06 1.341-.222 1.93l.884.265a.622.622 0 01.447.632l-.074 1.398a.627.627 0 01-.629.592h-.033a.63.63 0 01-.595-.659l.05-.907-.591-.179c-.528.683-1.405 1.12-2.847 1.12-1.446 0-2.323-.437-2.85-1.126l-.616.185.05.907a.628.628 0 01-.594.659h-.034a.627.627 0 01-.629-.592l-.074-1.398a.62.62 0 01.448-.632l.907-.272c-.161-.588-.212-1.244-.218-1.923h-.155v.303a.627.627 0 01-.629.625.625.625 0 01-.628-.625v-.928a.63.63 0 01.628-.629h.824c.05-.55.161-1.085.366-1.566l-1.092-.326a.626.626 0 01-.447-.635l.074-1.399c.017-.346.312-.571.662-.591.35.017.615.312.595.659l-.05.907.648.195a2.424 2.424 0 01-.03-.356c0-2.027 2-2.027 2.85-2.027.854 0 2.85 0 2.85 2.027 0 .12-.013.235-.026.346l.612-.182-.05-.907a.628.628 0 01.594-.659c.36.02.646.245.662.592l.074 1.398a.626.626 0 01-.447.635l-1.072.32c.208.477.32 1.018.37 1.573h.82v-.004zM8.958 13.21c.35 0 .629.28.629.625v3.476a.627.627 0 01-.629.625.627.627 0 01-.629-.625v-3.476c0-.346.283-.625.629-.625zm13.072 6.064c.178-.208.135-.561.135-.565l-.01-.114.006-9.294-4.464 2.78c.088.376.165.763.212 1.176.054.467.08.965.08 1.47 0 1.865-.389 3.458-1.112 4.786 2.01 0 4.04-.004 4.42-.01.246.003.575-.044.733-.23zM9.361 22.208c.955-.016 4.202-.272 5.963-2.867.807-1.186 1.217-2.736 1.217-4.608 0-.454-.023-.891-.07-1.304-.65-5.617-5.63-6.172-7.143-6.212a31.318 31.318 0 00-.578-.007H8.57c-1.526.014-6.544.511-7.068 6.407-.03.34-.048.696-.048 1.065 0 6.888 5.493 7.503 7.177 7.526.245.007.51.004.73 0zm2.32-20.437L3.492 6.945c-.094.067-.164.221-.208.433 1.553-1.11 3.462-1.593 5.27-1.61.263-.003.559 0 .807.007 3.052.074 6.42 1.442 7.883 4.89l4.91-3.062c-.026-.326-.117-.571-.272-.682l-.094-.06-8.037-5.073a1.965 1.965 0 00-1.038-.312c-.595.003-1.026.292-1.032.295zm11.93 16.78c.03.249.063 1.015-.455 1.637-.282.34-.827.746-1.832.763a913 913 0 01-5.452.01c-2.205 2.404-5.462 2.67-6.484 2.686-.154.003-.336.007-.517.007-.088 0-.175 0-.263-.004C7.17 23.627 0 23.1 0 14.68c0-.417.017-.813.05-1.193.175-1.987.82-3.52 1.735-4.686V7.731c.027-1.14.497-1.707.887-1.99l.155-.1L10.87.56a3.385 3.385 0 011.818-.537 3.41 3.41 0 011.869.56l8.134 5.137c.424.3.895.87.921 1.993l-.003 10.837z" fill="#5CB615" fill-rule="nonzero"/></svg>
